assets/images/dispensing/seg-height-measurement.svg

<svg xmlns="http://www.w3.org/2000/svg" width="300" height="200" aria-hidden="false" viewBox="0 0 300 200"><defs><linearGradient id="a" x1="0%" x2="100%" y1="0%" y2="100%"><stop offset="0%" stop-color="#ffdfc4"/><stop offset="100%" stop-color="#f5d0b0"/></linearGradient><linearGradient id="b" x1="0%" x2="100%" y1="0%" y2="0%"><stop offset="0%" stop-color="#6a4a3c"/><stop offset="100%" stop-color="#8b5a2b"/></linearGradient><linearGradient id="d" x1="0%" x2="100%" y1="0%" y2="100%"><stop offset="0%" stop-color="#e6f7ff" stop-opacity=".6"/><stop offset="100%" stop-color="#bfefff" stop-opacity=".4"/></linearGradient><filter id="c" width="120%" height="120%" x="-10%" y="-10%"><feDropShadow dx="1" dy="1" flood-opacity=".3" stdDeviation="1"/></filter></defs><rect width="300" height="200" fill="#f8f8f8" rx="5"/><text x="150" y="20" font-family="Arial" font-size="12" font-size-adjust=".5" font-weight="bold" text-anchor="middle" text-rendering="optimizeLegibility">Segment Height Measurement</text><ellipse cx="150" cy="95" fill="url(#a)" rx="50" ry="60"/><path fill="#f5d0b0" d="M100 95q-10 10-5 20t10 0m95-20q10 10 5 20t-10 0"/><path fill="none" stroke="#5c3317" stroke-width="2" d="M120 60q15-5 30 0m30 0q-15-5-30 0"/><path fill="url(#b)" d="M110 85H95q-2 10 0 20h15Zm80 0h15q2 10 0 20h-15Z" filter="url(#c)"/><path stroke="#8b5a2b" stroke-width="4" d="M110 95h80"/><ellipse cx="125" cy="95" fill="url(#d)" stroke="#8b5a2b" rx="15" ry="12"/><ellipse cx="175" cy="95" fill="url(#d)" stroke="#8b5a2b" rx="15" ry="12"/><path stroke="tomato" stroke-dasharray="2,1" d="M165 95h20"/><path stroke="#1e90ff" d="M165 98q5 2 10 2t10-2"/><path stroke="#32cd32" d="M165 103q5 4 10 4t10-4"/><ellipse cx="125" cy="95" fill="#3c3c3c" rx="5" ry="4"/><ellipse cx="175" cy="95" fill="#3c3c3c" rx="5" ry="4"/><circle cx="127" cy="94" r="1" fill="#fff"/><circle cx="177" cy="94" r="1" fill="#fff"/><path fill="#f0c0a0" d="M150 95q-5 15 0 20 5-5 0-20"/><path fill="none" stroke="#c66" d="M140 130q10 5 20 0"/><path stroke="red" d="M220 95v12m-4-12h8m-8 12h8"/><text x="230" y="103" fill="red" font-family="Arial" font-size="8" font-size-adjust=".5" text-rendering="optimizeLegibility">Seg Height</text><path stroke="#555" stroke-dasharray="2,1" stroke-width=".5" d="M175 95h40m-40 12h40"/><rect width="4" height="35" x="210" y="85" fill="#ccc" stroke="#999" stroke-width=".5" rx="1"/><rect width="240" height="30" x="30" y="160" fill="#f0f0f0" stroke="#ddd" rx="5"/><circle cx="40" cy="170" r="3" fill="tomato"/><text x="50" y="173" font-family="Arial" font-size="7" font-size-adjust=".5" text-rendering="optimizeLegibility">Fitting Cross/Pupil Center</text><circle cx="135" cy="170" r="3" fill="#1e90ff"/><text x="145" y="173" font-family="Arial" font-size="7" font-size-adjust=".5" text-rendering="optimizeLegibility">Near Vision Zone Start</text><circle cx="225" cy="170" r="3" fill="#32cd32"/><text x="235" y="173" font-family="Arial" font-size="7" font-size-adjust=".5" text-rendering="optimizeLegibility">Reading Area</text><text x="30" y="145" fill="#555" font-family="Arial" font-size="7" font-size-adjust=".5" text-rendering="optimizeLegibility">Measure from bottom of frame to where the segment begins.</text><text x="30" y="155" fill="#555" font-family="Arial" font-size="7" font-size-adjust=".5" text-rendering="optimizeLegibility">Typical measurements range from 15mm to 25mm.</text></svg>

<svg xmlns="http://www.w3.org/2000/svg" width="300" height="200" viewBox="0 0 300 200">
    <title>Seg Height Measurement</title>
    <defs>
        <linearGradient id="faceGradient" x1="0%" y1="0%" x2="100%" y2="100%">
            <stop offset="0%" stop-color="#ffdfc4" />
            <stop offset="100%" stop-color="#f5d0b0" />
        </linearGradient>
        <linearGradient id="frameGradient" x1="0%" y1="0%" x2="100%" y2="0%">
            <stop offset="0%" stop-color="#6a4a3c" />
            <stop offset="100%" stop-color="#8b5a2b" />
        </linearGradient>
        <linearGradient id="lensGradient" x1="0%" y1="0%" x2="100%" y2="100%">
            <stop offset="0%" stop-color="#e6f7ff" stop-opacity="0.6" />
            <stop offset="100%" stop-color="#bfefff" stop-opacity="0.4" />
        </linearGradient>
        <filter id="shadow" x="-10%" y="-10%" width="120%" height="120%">
            <feDropShadow dx="1" dy="1" stdDeviation="1" flood-opacity="0.3" />
        </filter>
    </defs>
    
    <!-- Background -->
    <rect width="300" height="200" rx="5" fill="#f8f8f8" />
    
    <!-- Title -->
    <text x="150" y="20" font-family="Arial" font-size="12" font-weight="bold" text-anchor="middle">Segment Height Measurement</text>
    
    <!-- Face Outline -->
    <ellipse cx="150" cy="95" rx="50" ry="60" fill="url(#faceGradient)" />
    
    <!-- Ears -->
    <path d="M100,95 Q90,105 95,115 Q100,125 105,115" fill="#f5d0b0" />
    <path d="M200,95 Q210,105 205,115 Q200,125 195,115" fill="#f5d0b0" />
    
    <!-- Eyebrows -->
    <path d="M120,60 Q135,55 150,60" stroke="#5c3317" stroke-width="2" fill="none" />
    <path d="M180,60 Q165,55 150,60" stroke="#5c3317" stroke-width="2" fill="none" />
    
    <!-- Glasses Frame -->
    <path d="M110,85 L105,85 L95,85 Q93,95 95,105 L105,105 L110,105 Z" fill="url(#frameGradient)" filter="url(#shadow)" />
    <path d="M190,85 L195,85 L205,85 Q207,95 205,105 L195,105 L190,105 Z" fill="url(#frameGradient)" filter="url(#shadow)" />
    <path d="M110,95 L190,95" stroke="#8b5a2b" stroke-width="4" />
    
    <!-- Lenses -->
    <ellipse cx="125" cy="95" rx="15" ry="12" fill="url(#lensGradient)" stroke="#8b5a2b" stroke-width="1" />
    <ellipse cx="175" cy="95" rx="15" ry="12" fill="url(#lensGradient)" stroke="#8b5a2b" stroke-width="1" />
    
    <!-- Progressive Lens Segment Visualization (on right lens) -->
    <path d="M165,95 L185,95" stroke="#ff6347" stroke-width="1" stroke-dasharray="2,1" />
    <path d="M165,98 Q170,100 175,100 Q180,100 185,98" stroke="#1e90ff" stroke-width="1" />
    <path d="M165,103 Q170,107 175,107 Q180,107 185,103" stroke="#32cd32" stroke-width="1" />
    
    <!-- Eyes -->
    <ellipse cx="125" cy="95" rx="5" ry="4" fill="#3c3c3c" />
    <ellipse cx="175" cy="95" rx="5" ry="4" fill="#3c3c3c" />
    <circle cx="127" cy="94" r="1" fill="white" />
    <circle cx="177" cy="94" r="1" fill="white" />
    
    <!-- Nose -->
    <path d="M150,95 Q145,110 150,115 Q155,110 150,95" fill="#f0c0a0" />
    
    <!-- Mouth -->
    <path d="M140,130 Q150,135 160,130" stroke="#cc6666" stroke-width="1" fill="none" />
    
    <!-- Measurement Indicator -->
    <line x1="220" y1="95" x2="220" y2="107" stroke="#ff0000" stroke-width="1" />
    <line x1="216" y1="95" x2="224" y2="95" stroke="#ff0000" stroke-width="1" />
    <line x1="216" y1="107" x2="224" y2="107" stroke="#ff0000" stroke-width="1" />
    <text x="230" y="103" font-family="Arial" font-size="8" fill="#ff0000">Seg Height</text>
    
    <!-- Annotation with Leader Lines -->
    <line x1="175" y1="95" x2="215" y2="95" stroke="#555555" stroke-width="0.5" stroke-dasharray="2,1" />
    <line x1="175" y1="107" x2="215" y2="107" stroke="#555555" stroke-width="0.5" stroke-dasharray="2,1" />
    
    <!-- Measurement Tool Visualization -->
    <rect x="210" y="85" width="4" height="35" rx="1" fill="#cccccc" stroke="#999999" stroke-width="0.5" />
    
    <!-- Legend -->
    <rect x="30" y="160" width="240" height="30" rx="5" fill="#f0f0f0" stroke="#dddddd" />
    <circle cx="40" cy="170" r="3" fill="#ff6347" />
    <text x="50" y="173" font-family="Arial" font-size="7">Fitting Cross/Pupil Center</text>
    <circle cx="135" cy="170" r="3" fill="#1e90ff" />
    <text x="145" y="173" font-family="Arial" font-size="7">Near Vision Zone Start</text>
    <circle cx="225" cy="170" r="3" fill="#32cd32" />
    <text x="235" y="173" font-family="Arial" font-size="7">Reading Area</text>
    
    <!-- Information Text -->
    <text x="30" y="145" font-family="Arial" font-size="7" fill="#555555">Measure from bottom of frame to where the segment begins.</text>
    <text x="30" y="155" font-family="Arial" font-size="7" fill="#555555">Typical measurements range from 15mm to 25mm.</text>
</svg>
